X: 30541
T: LADY BATH'S FAVORITE
C:
%R: jig
B: Elias Howe "The Musician's Companion" Part 3 1844 p.54 #1
S: http://imslp.org/wiki/The_Musician's_Companion_(Howe,_Elias)
S: https://archive.org/stream/firstthirdpartof03howe/#page/66/mode/1up
Z: 2015 John Chambers <jc:trillian.mit.edu>
N: The rhythms don't match at the strain boundaries; not fixed.
M: 6/8
L: 1/8
K: Bb
% - - - - - - - - - - - - - - - - - - - - - - - - -
|:\
[B2D2][BD] [B2D2]z | f2e dcB | [A2E2][AE] [A2E2]z | e2d cBA |\
BBB d2z | fff b2z | fdB fdB | [cAF][cAF][cAF] [c3A3F3] :|
|: B |\
e2c B2A | Bdf f=ef | _e2c B2A | Bdf f2z |\
g2b agf | e2g fed | cde cAF | [B3D3] [B2D2] :|
% - - - - - - - - - - - - - - - - - - - - - - - - -
